X:1
T:Title
%%score ( 1 2 ) { 3 | 4 }
L:1/8
Q:1/4=100
M:6/8
K:Bb
V:1 treble nm="Grand Piano, Soprano"
V:2 treble 
V:3 bass nm="Choir Pad, Heart and Voice (DeArmond)"
V:4 bass 
V:1
 [DF]2 [_D=E] [=DF]2 [_EG] | [DF]2 [DB] [Fd]3 | [Ec][EB][EG] [Ec][EB][E^F] | [DB]6 | %4
w: By~Samuel~William~Beazley * * *||||
 [DF]2 [_D=E] [=DF]2 [_EG] | [DF]2 [DB] [Fd]3 | [=Ec][EB][EA] [EG][EA][EB] | [Ec]6 | %8
w: ||||
 [^Fd]2 [Fe] [Fd]2 [FA] | c3 z3 | [=Ec]2 [Ed] [Ec]2 [EG] | B3 z3 | FGA Bcd | e2 G [Gd]2 [Gc] | %14
w: ||||||
 [FB]3 [EA]3 | [DB]6 | [DFB]3 [DFA]3 | [B,EG]2 A GFD | z3 .F3 | [B,DF]6 | B3 A3 | G2 A GFD | %22
w: ||||||||
 [A,EF]3 F2 G | [A,EF]6 | [DFd]3 [D^Fc]3 | [DGB]2 A GAB | [CFc]3 [C=EB]3 | [CFA]2 G FGA | %28
w: ||||||
 [DFB]3 [D^Fc]3 | [DGBd]3 [C=EB]3 | [CEAc]6- | [CEAc]6 | B3 A3 | [B,EG]2 A GFD | F3 z3 | [B,DF]6 | %36
w: ||||||||
 B3 A3 | [B,DG]2 A GFD | z3 .F3 | [A,EF]6 | [^Fd]2 [Fe] [Fd]2 [FA] | [Gc]3 [GB]3 | %42
w: ||||||
 [=Ec]2 [Ed] [Ec]2 [EG] | [FB]3 [FA]3 | FGA Bcd | e2 G [Gd]2 [Gc] | [FB]3 [EA]3 | [DB]6- | %48
w: ||||||
 [DB]3 z3 |] %49
w: |
V:2
 x6 | x6 | x6 | x6 | x6 | x6 | x6 | x6 | x6 | G3- [GB]3 | x6 | F3- [FA]3 | x6 | x6 | x6 | x6 | x6 | %17
 x6 | [B,DF]3 [B,D]2- [B,DG] | x6 | [DF]6 | [B,E]3 z3 | z3 [A,E]3 | x6 | x6 | x6 | x6 | x6 | x6 | %29
 x6 | x6 | x6 | [DF]6 | x6 | [B,D]3- [B,DG]2 G | x6 | [DF]6 | x6 | [A,EF]3 [A,E]2- [A,EG] | x6 | %40
 x6 | x6 | x6 | x6 | x6 | x6 | x6 | x6 | x6 |] %49
V:3
 B,2 B, B,2 B, | B,2 F, B,3 | G,G,B, ^F,F,B, | B,6 | B,2 B, B,2 B, | B,2 F, B,3 | G,G,A, B,A,G, | %7
 A,6 | A,2 A, A,2[K:treble] D | D6 | C2 C C2 B, | D3 C3 | F,G,A, B,C[K:treble]D | E2 G, E2 E | %14
 D3 C3 | B,6 | B,3 A,3 | G,2 A, G,F,D, | F,3 B,,3 | F,,3 F,3 | B,3 A,3 | G,2 A, G,F,D, | F,3 C,3 | %23
 F,,3 F,3 | B,3 A,3 | G,2 ^F, G,A,B, | A,3 G,3 | F,2 =E, F,G,A, | B,3 A,3 | G,3 ^F,3 | F,3 ^F,3 | %31
 F,^F,G, A,G,=F, | B,3 A,3 | G,2 A, G,F,D, | F,3 B,,3 | F,,3 F,3 | B,3 A,3 | G,2 A, G,F,D, | %38
 F,3 C,3 | F,,3 F,3 | A,2 A, A,2[K:treble] D | D3 D3 | C2 C C2 C | D3 C3 | F,G,A, B,C[K:treble]D | %45
 E2 G, F2 F | E3 C3 | B,6- | B,3 z3 |] %49
V:4
 B,,2 B,, B,,2 B,, | B,,2 B,, B,,3 | E,E,E, E,E,E, | B,,6 | B,,2 B,, B,,2 B,, | B,,2 B,, B,,3 | %6
 C,C,C, C,C,C, | F,6 | D,2 D, D,2 D, | G,6 | C,2 C, C,2 C, | F,6 | z6 | z3 E,2 E, | F,6 | B,,6 | %16
 z6 | z6 | z6 | z6 | z6 | z6 | z6 | z6 | z6 | z6 | z6 | z6 | z6 | z6 | z6 | z6 | z6 | z6 | z6 | %35
 z6 | z6 | z6 | z6 | z6 | D,2 D, D,2 D, | G,3 G,3 | C,2 C, C,2 C, | F,3 F,3 | z6 | z3 E,2 E, | %46
 F,3 F,3 | B,,6- | B,,3 z3 |] %49

